src/images/advantages/square-finance.svg

<svg width="102" height="104" viewBox="0 0 102 104" fill="none" xmlns="http://www.w3.org/2000/svg">
<g clip-path="url(#clip0)">
<path d="M25.8127 48.6131C25.8127 49.1484 25 49.1484 25 48.6131C25 37.2311 34.2311 28 45.6131 28C57 28 66.2263 37.2311 66.2263 48.6131C66.2263 49.1484 65.4185 49.1484 65.4185 48.6131C65.4185 40.9197 52.7762 40.9148 52.7762 48.6131C52.7762 49.1484 51.944 49.1484 51.944 48.6131C51.944 40.9392 39.2822 40.9392 39.2822 48.6131C39.2822 49.1484 38.4501 49.1484 38.4501 48.6131C38.4501 40.9538 25.8127 40.9002 25.8127 48.6131ZM38.5231 45.6253C38.7421 41.1971 39.438 37.2263 40.4501 34.1946C41.2579 31.7859 42.2798 29.9562 43.438 28.9294C34.747 29.8783 27.7105 36.4672 26.1387 45.0122C29.1314 40.6959 36.0414 41.0414 38.5231 45.6253ZM51.8808 45.4258C51.6569 41.1679 50.9805 37.3577 50.0073 34.4526C47.4963 26.9343 43.7299 26.9343 41.219 34.4526C40.2457 37.3577 39.5742 41.1679 39.3455 45.4258C42.0462 40.837 49.18 40.837 51.8808 45.4258ZM65.0876 45.0122C63.5207 36.4672 56.4842 29.8783 47.7883 28.9294C48.9513 29.9562 49.9684 31.7859 50.7762 34.1946C51.7883 37.2263 52.4842 41.1971 52.7032 45.6253C55.1995 41.017 62.1289 40.7445 65.0876 45.0122Z" fill="#FF6B09"/>
<path d="M42.9075 58.045V53.8592C42.1533 54.3605 41.5596 55.1344 41.5596 56.0786C41.5596 56.9985 42.163 57.6069 42.9075 58.045ZM43.7202 59.3445C42.2749 58.6826 40.7518 57.9087 40.7518 56.0786C40.7518 54.1902 42.1874 53.2459 43.7202 52.5402V59.3445Z" fill="#FF6B09"/>
<path d="M48.3188 64.36V68.5936C49.0828 68.0875 49.6813 67.309 49.6813 66.3649C49.6813 65.4355 49.0682 64.8077 48.3188 64.36ZM47.511 63.0559C48.9611 63.7274 50.4939 64.5255 50.4939 66.3649C50.4939 68.2579 49.0487 69.2019 47.511 69.9026V63.0559Z" fill="#FF6B09"/>
<path d="M48.3188 49.0948C51.6472 49.8637 55.0682 52.3553 55.0682 56.078C55.0682 59.2654 49.6813 59.1486 49.6813 56.078C49.6813 55.1291 49.0828 54.3505 48.3188 53.8492V59.8056C51.3991 60.8129 55.0779 62.6183 55.0779 66.3654C55.0779 70.0929 51.657 72.5796 48.3188 73.3436C48.3042 76.8912 42.9173 76.8863 42.9076 73.3388C41.0098 72.9008 39.3601 72.0151 38.1679 70.8423C36.9173 69.6063 36.1777 68.054 36.1777 66.3654C36.1777 63.2266 41.5596 63.2266 41.5596 66.3654C41.5596 67.3045 42.1533 68.0783 42.9076 68.5795V62.628C39.8516 61.6402 36.1533 59.7812 36.1533 56.0683C36.1533 52.3407 39.5742 49.854 42.9076 49.09C42.9222 45.5424 48.309 45.5473 48.3188 49.0948ZM43.7202 49.1046V49.7518C40.5523 50.3796 36.9611 52.4088 36.9611 56.0683C36.9611 59.5866 40.9027 61.1633 43.7202 62.0343V69.8983C42.1971 69.2024 40.7519 68.2632 40.7519 66.3654C40.7519 64.2923 36.9854 64.2923 36.9854 66.3654C36.9854 67.8301 37.6375 69.1829 38.7373 70.2633C40.1339 71.6453 41.8273 72.3022 43.7202 72.6769V73.329C43.7202 75.8254 47.511 75.8254 47.511 73.329V72.6818C50.6886 72.0492 54.2652 70.0199 54.2652 66.3654C54.2652 62.813 50.3334 61.2849 47.511 60.3944V53.1631V52.5353C49.039 53.2312 50.494 54.1704 50.494 56.078C50.494 58.0975 54.2555 58.1802 54.2555 56.078C54.2555 52.4234 50.6837 50.3893 47.511 49.7567V49.1046C47.511 46.6082 43.7202 46.6082 43.7202 49.1046Z" fill="#FF6B09"/>
</g>
<path d="M101 15V1H1V103H101V89" stroke="#FF6B09" stroke-width="2"/>
<defs>
<clipPath id="clip0">
<rect width="42" height="48" fill="white" transform="translate(25 28)"/>
</clipPath>
</defs>
</svg>

<svg width="102" height="104" fill="none" xmlns="http://www.w3.org/2000/svg"><g clip-path="url(#clip0)" fill="#FF6B09"><path d="M25.813 48.613c0 .535-.813.535-.813 0C25 37.231 34.231 28 45.613 28 57 28 66.226 37.231 66.226 48.613c0 .535-.808.535-.808 0 0-7.693-12.642-7.698-12.642 0 0 .535-.832.535-.832 0 0-7.674-12.662-7.674-12.662 0 0 .535-.832.535-.832 0 0-7.66-12.637-7.713-12.637 0zm12.71-2.988c.22-4.428.915-8.399 1.927-11.43.808-2.41 1.83-4.239 2.988-5.266-8.691.95-15.728 7.538-17.3 16.083 2.993-4.316 9.903-3.97 12.385.613zm13.358-.2c-.224-4.257-.9-8.067-1.874-10.972-2.51-7.519-6.277-7.519-8.788 0-.973 2.905-1.645 6.715-1.873 10.973 2.7-4.589 9.834-4.589 12.535 0zm13.207-.413c-1.567-8.545-8.604-15.134-17.3-16.083 1.163 1.027 2.18 2.857 2.988 5.266 1.012 3.031 1.708 7.002 1.927 11.43 2.496-4.608 9.426-4.88 12.385-.613zM42.907 58.045v-4.186c-.754.502-1.347 1.275-1.347 2.22 0 .92.603 1.528 1.347 1.966zm.813 1.3c-1.445-.662-2.968-1.436-2.968-3.266 0-1.889 1.435-2.833 2.968-3.539v6.804zM48.319 64.36v4.234c.764-.506 1.362-1.285 1.362-2.23 0-.928-.613-1.556-1.362-2.004zm-.808-1.304c1.45.671 2.983 1.47 2.983 3.309 0 1.893-1.445 2.837-2.983 3.538v-6.847z"/><path d="M48.319 49.095c3.328.769 6.75 3.26 6.75 6.983 0 3.187-5.388 3.07-5.388 0 0-.949-.598-1.728-1.362-2.229v5.957c3.08 1.007 6.759 2.812 6.759 6.56 0 3.727-3.421 6.214-6.76 6.978-.014 3.547-5.4 3.542-5.41-.005-1.898-.438-3.548-1.324-4.74-2.497-1.25-1.236-1.99-2.788-1.99-4.477 0-3.138 5.382-3.138 5.382 0 0 .94.593 1.713 1.348 2.215v-5.952c-3.056-.988-6.755-2.847-6.755-6.56 0-3.727 3.421-6.214 6.755-6.978.014-3.548 5.401-3.543 5.41.005zm-4.599.01v.647c-3.168.628-6.759 2.657-6.759 6.316 0 3.519 3.942 5.095 6.76 5.966v7.864c-1.524-.696-2.97-1.635-2.97-3.533 0-2.073-3.766-2.073-3.766 0 0 1.465.653 2.818 1.752 3.898 1.397 1.382 3.09 2.04 4.983 2.414v.652c0 2.496 3.791 2.496 3.791 0v-.647c3.178-.633 6.754-2.662 6.754-6.317 0-3.552-3.932-5.08-6.754-5.97v-7.86c1.528.696 2.983 1.635 2.983 3.543 0 2.02 3.761 2.102 3.761 0 0-3.655-3.571-5.689-6.744-6.321v-.652c0-2.497-3.79-2.497-3.79 0z"/></g><path d="M101 15V1H1v102h100V89" stroke="#FF6B09" stroke-width="2"/><defs><clipPath id="clip0"><path fill="#fff" transform="translate(25 28)" d="M0 0h42v48H0z"/></clipPath></defs></svg>
